icons/card-spade.svg

<svg width="24" height="24" viewBox="0 0 24 24" fill="none" xmlns="http://www.w3.org/2000/svg">
<path d="M12 2C12 2 21 8.15385 21 13.1538C21 14.1051 20.746 15.0366 20.2678 15.839C19.7897 16.6414 19.1072 17.2814 18.3005 17.684C17.4938 18.0866 16.5964 18.2349 15.7135 18.1117C14.8307 17.9885 13.9991 17.5987 13.3163 16.9883L14.88 22H9.12L10.6837 16.9883C10.0009 17.5987 9.16931 17.9885 8.28646 18.1117C7.40361 18.2349 6.50618 18.0866 5.69949 17.684C4.8928 17.2814 4.21033 16.6414 3.73217 15.839C3.25402 15.0366 3.00002 14.1051 3 13.1538C3 8.15385 12 2 12 2Z" stroke="white" stroke-width="2" stroke-linecap="round" stroke-linejoin="round"/>
</svg>

<svg
  width="24"
  height="24"
  viewBox="0 0 24 24"
  xmlns="http://www.w3.org/2000/svg"
  fill="none"
  stroke="currentColor"
  stroke-width="2"
  stroke-linecap="round"
  stroke-linejoin="round"
>
  <path d="M12 2s9 6.154 9 11.154c0 .951-.254 1.883-.732 2.685a4.792 4.792 0 0 1-1.968 1.845 4.414 4.414 0 0 1-2.587.428 4.54 4.54 0 0 1-2.397-1.124L14.88 22H9.12l1.564-5.012a4.54 4.54 0 0 1-2.398 1.124 4.414 4.414 0 0 1-2.587-.428 4.792 4.792 0 0 1-1.967-1.845A5.253 5.253 0 0 1 3 13.154C3 8.154 12 2 12 2z" />
</svg>
